art/systems/mame-advmame.svg

<?xml version="1.0" encoding="UTF-8"?>
<!DOCTYPE svg  PUBLIC '-//W3C//DTD SVG 1.1//EN'  'http://www.w3.org/Graphics/SVG/1.1/DTD/svg11.dtd'>
<svg enable-background="new 0 0 685 182" version="1.1" viewBox="0 0 685 182" xml:space="preserve" xmlns="http://www.w3.org/2000/svg">

	
		<linearGradient id="i" x1="-115.67" x2="-115.67" y1="311.5" y2="238" gradientTransform="matrix(1 0 0 -1 654 325)" gradientUnits="userSpaceOnUse">
		<stop stop-color="#7ED3F7" offset="0"/>
		<stop stop-color="#003D7E" offset="1"/>
	</linearGradient>
	<path d="m503.08 14.5c-3.728 0-6.75 3.855-6.75 7.583v58.834c0 3.728 3.022 6.915 6.75 6.915h77.25v-20.5h-61v-32.665h61v-20.167h-77.25z" fill="url(#i)"/>
	<path d="m503.08 88.834c-4.317-0.017-7.745-3.648-7.751-7.917v-58.833c0.031-4.223 3.293-8.512 7.751-8.584v2c-1.508-2e-3 -2.937 0.785-4.014 2.043-1.074 1.252-1.742 2.948-1.738 4.541v58.833c6e-3 3.188 2.611 5.908 5.751 5.915h76.249v-18.501h-61v-34.665h61v-18.166h-76.249v-2h78.249v22.166h-61v30.666h61v22.503l-78.248-1e-3z"/>


	
		<linearGradient id="h" x1="-374.17" x2="-374.17" y1="224.5" y2="151.5" gradientTransform="matrix(1 0 0 -1 654 325)" gradientUnits="userSpaceOnUse">
		<stop stop-color="#7ED3F7" offset="0"/>
		<stop stop-color="#003D7E" offset="1"/>
	</linearGradient>
	<path d="M235,107.084c0-3.729,3.022-7.584,6.75-7.584h83.584v73.333h-23.5v-53.167h-10.167v53.167H268   v-53.167h-10.5v53.167h-23.167L235,107.084z" fill="url(#h)"/>
	<path d="m267 173.83v-53.17h-8.501v53.17h-25.177l0.678-66.75h-2e-3c0.031-4.224 3.294-8.513 7.752-8.585h84.583v75.333h-25.502v-53.166h-8.166v53.168h-25.665zm35.834-55.168-2e-3 53.167h21.501v-71.332h-82.582c-1.509-4e-3 -2.937 0.784-4.014 2.043-1.075 1.251-1.743 2.947-1.736 4.54h-1l0.998 0.011-0.656 64.738h21.157v-53.167h12.5v53.167h21.666v-53.167h12.168z"/>


	
		<linearGradient id="g" x1="-177.17" x2="-177.17" y1="224.5" y2="151.5" gradientTransform="matrix(1 0 0 -1 654 325)" gradientUnits="userSpaceOnUse">
		<stop stop-color="#7ED3F7" offset="0"/>
		<stop stop-color="#003D7E" offset="1"/>
	</linearGradient>
	<path d="M432,107.084c0-3.729,3.021-7.584,6.75-7.584h83.584v73.333h-23.5v-53.167h-10.167v53.167H465   v-53.167h-10.5v53.167h-23.166L432,107.084z" fill="url(#g)"/>
	<path d="m464 173.83v-53.17h-8.499v53.17h-25.177l0.677-66.761c0.036-4.219 3.297-8.502 7.75-8.574h84.584v75.333h-25.5v-53.166h-8.167v53.168h-25.668zm35.834-55.168v53.167h21.501v-71.332h-82.584c-1.507-4e-3 -2.936 0.784-4.014 2.043-1.073 1.251-1.741 2.947-1.736 4.54h-1l1 0.011-0.656 64.738h21.156v-53.167h12.5l-2e-3 53.167h21.668v-53.167h12.167z"/>


	
		<linearGradient id="f" x1="-626.75" x2="-626.75" y1="311.5" y2="238" gradientTransform="matrix(1 0 0 -1 654 325)" gradientUnits="userSpaceOnUse">
		<stop stop-color="#7ED3F7" offset="0"/>
		<stop stop-color="#003D7E" offset="1"/>
	</linearGradient>
	<rect x="15.167" y="14.5" width="24.167" height="24.834" fill="url(#f)"/>
	<path d="m14.166 40.334v-26.834h26.167v26.834h-26.167zm25.167-1v-1 1zm-23.167-1h22.168v-22.835h-22.168v22.835z"/>


	
		<linearGradient id="e" x1="-270.75" x2="-270.75" y1="311.5" y2="238" gradientTransform="matrix(1 0 0 -1 654 325)" gradientUnits="userSpaceOnUse">
		<stop stop-color="#7ED3F7" offset="0"/>
		<stop stop-color="#003D7E" offset="1"/>
	</linearGradient>
	<rect x="371.17" y="14.5" width="24.167" height="24.834" fill="url(#e)"/>
	<path d="m370.17 40.334v-26.834h26.167v26.834h-26.167zm25.167-1v-1 1zm-23.166-1h22.166v-22.835h-22.166v22.835z"/>


	
		<linearGradient id="d" x1="-308.75" x2="-308.75" y1="224.5" y2="151.5" gradientTransform="matrix(1 0 0 -1 654 325)" gradientUnits="userSpaceOnUse">
		<stop stop-color="#7ED3F7" offset="0"/>
		<stop stop-color="#003D7E" offset="1"/>
	</linearGradient>
	<rect x="333.17" y="99.5" width="24.168" height="24.834" fill="url(#d)"/>
	<path d="m332.17 125.33v-26.835h26.167v26.835h-26.167zm25.169-1v-1.002 1.002zm-23.17-1.002h22.17v-22.832h-22.17v22.832z"/>


	
		<linearGradient id="c" x1="-593.42" x2="-593.42" y1="311.5" y2="238" gradientTransform="matrix(1 0 0 -1 654 325)" gradientUnits="userSpaceOnUse">
		<stop stop-color="#7ED3F7" offset="0"/>
		<stop stop-color="#003D7E" offset="1"/>
	</linearGradient>
	<polygon points="15.5 87.833 74.167 14.5 105.67 14.5 105.67 87.833 54.667 87.833 69.5 68.5 81.667 68.5 81.667 39.333 43 87.833" fill="url(#c)"/>
	<path d="m52.636 88.832 16.37-21.334h11.66v-25.308l-37.184 46.642h-27.983v-0.999l0.781 0.623-0.781-0.623v0.999h-2.08l60.267-75.333h32.98v75.333h-54.03zm-10.119-1.999 40.149-50.357v33.024l-12.675-3e-3 -13.298 17.334h47.973v-71.332h-30.02l-57.067 71.334h24.938z"/>


	
		<linearGradient id="b" x1="-274.92" x2="-274.92" y1="224.5" y2="151.5" gradientTransform="matrix(1 0 0 -1 654 325)" gradientUnits="userSpaceOnUse">
		<stop stop-color="#7ED3F7" offset="0"/>
		<stop stop-color="#003D7E" offset="1"/>
	</linearGradient>
	<polygon points="334 172.83 392.67 99.5 424.17 99.5 424.17 172.83 373.17 172.83 388 153.5 400.17 153.5 400.17 124.33 361.5 172.83" fill="url(#b)"/>
	<path d="m371.14 173.83 16.371-21.334h11.657v-25.307l-37.183 46.641h-27.981v-1l0.781 0.624-0.781-0.624v1h-2.081l60.265-75.333h32.981v75.333h-54.029zm-10.118-1.999 40.148-50.356v33.023l-12.674-2e-3 -13.3 17.332h47.973v-71.331h-30.019l-57.067 71.334h24.939z"/>


	
		<linearGradient id="a" x1="-303.92" x2="-303.92" y1="311.5" y2="238" gradientTransform="matrix(1 0 0 -1 654 325)" gradientUnits="userSpaceOnUse">
		<stop stop-color="#7ED3F7" offset="0"/>
		<stop stop-color="#003D7E" offset="1"/>
	</linearGradient>
	<polygon points="395.17 87.833 336.5 14.5 305 14.5 305 87.833 356 87.833 341.17 68.5 329 68.5 329 39.333 367.67 87.833" fill="url(#a)"/>
	<path d="m367.18 88.832-37.185-46.64v25.306h11.66l16.37 21.334h-54.03v-75.333h32.98l58.967 73.708-0.781 0.626v-1 1l0.781-0.626 1.302 1.625h-30.064zm0.963-1.999h24.938l-57.067-71.334h-30.02v71.332h47.973l-13.297-17.331h-12.675v-33.026l40.148 50.359z"/>


	
		
			<linearGradient id="o" x1="-498.5" x2="-498.5" y1="311.85" y2="236.84" gradientTransform="matrix(1 0 0 -1 654 325)" gradientUnits="userSpaceOnUse">
			<stop stop-color="#7ED3F7" offset="0"/>
			<stop stop-color="#003D7E" offset="1"/>
		</linearGradient>
		<path d="m190.08 13.999h-76.416v47.667h23.666v-26.166h36.333v33.166l-59.999 2e-3v19.665h76.416c4.022-7e-3 7.247-3.417 7.249-7.414v-58.835c-0.015-3.977-3.157-8.048-7.249-8.085z" fill="url(#o)"/>
	
	
		<path d="m112.67 89.332v-21.664l59.999-2e-3v-31.167h-34.333v26.167h-25.666v-49.667h77.416v0.999l0.01-0.999c4.793 0.101 8.201 4.625 8.238 9.085v58.835c-6e-3 4.534-3.64 8.395-8.249 8.413h-77.415zm2-2h75.414c3.439-4e-3 6.254-2.954 6.252-6.413v-58.831c6e-3 -3.498-2.871-7.095-6.258-7.089h-75.408v45.667h21.666v-26.167h38.333v35.167h-59.999v17.666z"/>
	


	
		<linearGradient id="n" x1="-403" x2="-403" y1="311.5" y2="238" gradientTransform="matrix(1 0 0 -1 654 325)" gradientUnits="userSpaceOnUse">
		<stop stop-color="#7ED3F7" offset="0"/>
		<stop stop-color="#003D7E" offset="1"/>
	</linearGradient>
	<polygon points="206 14.5 206 87.833 238.83 87.833 296 14.5 268.67 14.5 229.17 62.334 229.17 14.5" fill="url(#n)"/>
	<path d="m205 88.834v-75.334h25.169v46.049l38.027-46.049h29.853l-58.726 75.334h-34.323zm2-2.002h31.346l55.606-71.332h-24.813l-40.972 49.614v-49.614h-21.166l-1e-3 71.332zm-0.999-71.332v-1 1z"/>


	
		<linearGradient id="m" x1="-369.75" x2="-369.75" y1="311.5" y2="238" gradientTransform="matrix(1 0 0 -1 654 325)" gradientUnits="userSpaceOnUse">
		<stop stop-color="#7ED3F7" offset="0"/>
		<stop stop-color="#003D7E" offset="1"/>
	</linearGradient>
	<rect x="272.17" y="62.667" width="24.167" height="25.166" fill="url(#m)"/>
	<path d="m271.17 88.834v-27.169h26.167v27.169h-26.167zm25.167-1.002v-1 1zm-23.167-1h22.167v-23.166h-22.167v23.166z"/>


	
		<linearGradient id="l" x1="-208.33" x2="-208.33" y1="311.5" y2="238" gradientTransform="matrix(1 0 0 -1 654 325)" gradientUnits="userSpaceOnUse">
		<stop stop-color="#7ED3F7" offset="0"/>
		<stop stop-color="#003D7E" offset="1"/>
	</linearGradient>
	<polygon points="403.83 87.833 403.83 14.5 431.67 14.5 463.83 53.667 463.83 14.5 487.5 14.5 487.5 87.833 462.17 87.833 427 45.167 427 87.833" fill="url(#l)"/>
	<path d="m461.7 88.834-33.695-40.881v40.881h-24.167v-1.002h1-1v1.002h-1v-75.334h29.305l30.695 37.372v-37.372h25.667v75.334h-26.805zm-56.862-2.002 21.167-3e-3v-44.45l36.639 44.45h23.859v-71.329h-21.665v40.961l-33.639-40.961h-26.361v71.332z"/>


	
		<linearGradient id="k" x1="-24" x2="-24" y1="311.5" y2="238" gradientTransform="matrix(1 0 0 -1 654 325)" gradientUnits="userSpaceOnUse">
		<stop stop-color="#7ED3F7" offset="0"/>
		<stop stop-color="#003D7E" offset="1"/>
	</linearGradient>
	<polygon points="588.17 14.5 588.17 87.833 671.83 87.833 671.83 68.167 611.67 68.167 611.67 60.667 671.83 60.667 671.83 40.5 611.5 40.5 611.5 34.833 671.83 34.833 671.83 14.5" fill="url(#k)"/>
	<path d="m587.17 88.834v-75.334h85.667v22.333h-60.335v3.667h60.335v22.167h-60.168v5.499h60.168v21.668h-85.667zm2-2.005h81.666v-17.663h-60.166v-9.501h60.166v-18.165h-60.333v-7.667h60.333v-18.333h-81.666v71.329zm-1-71.329v-1 1z"/>


	
		<linearGradient id="j" x1="-82" x2="-82" y1="224.5" y2="151.5" gradientTransform="matrix(1 0 0 -1 654 325)" gradientUnits="userSpaceOnUse">
		<stop stop-color="#7ED3F7" offset="0"/>
		<stop stop-color="#003D7E" offset="1"/>
	</linearGradient>
	<polygon points="530.17 99.5 530.17 172.83 613.83 172.83 613.83 153.17 553.67 153.17 553.67 145.67 613.83 145.67 613.83 125.5 553.5 125.5 553.5 119.83 613.83 119.83 613.83 99.5" fill="url(#j)"/>
	<path d="m529.16 173.83v-75.335h85.669v22.336l-60.334-2e-3v3.667h60.334v22.167l-60.169-3e-3v5.502h60.169v21.668h-85.669zm2-2.001h81.668v-17.667h-60.167v-9.499h60.167v-18.167h-60.333v-7.667h60.332v-18.332h-81.668l1e-3 71.332zm-1-71.332v-1 1z"/>

</svg>

<?xml version="1.0" encoding="utf-8"?>
<!-- Generator: Adobe Illustrator 13.0.0, SVG Export Plug-In . SVG Version: 6.00 Build 14948)  -->
<!DOCTYPE svg PUBLIC "-//W3C//DTD SVG 1.1//EN" "http://www.w3.org/Graphics/SVG/1.1/DTD/svg11.dtd">
<svg version="1.1" id="Layer_2" xmlns="http://www.w3.org/2000/svg" xmlns:xlink="http://www.w3.org/1999/xlink" x="0px" y="0px"
	 width="685px" height="182px" viewBox="0 0 685 182" enable-background="new 0 0 685 182" xml:space="preserve">
<g>
	
		<linearGradient id="SVGID_1_" gradientUnits="userSpaceOnUse" x1="-115.667" y1="311.5" x2="-115.667" y2="238" gradientTransform="matrix(1 0 0 -1 654 325)">
		<stop  offset="0" style="stop-color:#7ED3F7"/>
		<stop  offset="1" style="stop-color:#003D7E"/>
	</linearGradient>
	<path fill="url(#SVGID_1_)" d="M503.083,14.5c-3.728,0-6.75,3.855-6.75,7.583v58.834c0,3.728,3.022,6.915,6.75,6.915h77.25v-20.5
		h-61V34.667h61V14.5H503.083z"/>
	<path d="M503.083,88.834c-4.317-0.017-7.745-3.648-7.751-7.917l0,0V22.084c0.031-4.223,3.293-8.512,7.751-8.584l0,0v1v1
		c-1.508-0.002-2.937,0.785-4.014,2.043l0,0c-1.074,1.252-1.742,2.948-1.738,4.541l0,0v58.833c0.006,3.188,2.611,5.908,5.751,5.915
		l0,0h76.249V68.331h-61V33.666h61V15.5h-76.249v-1v-1h78.249v22.166h-61v30.666h61v22.503L503.083,88.834L503.083,88.834z"/>
</g>
<g>
	
		<linearGradient id="SVGID_2_" gradientUnits="userSpaceOnUse" x1="-374.1665" y1="224.5" x2="-374.1665" y2="151.5" gradientTransform="matrix(1 0 0 -1 654 325)">
		<stop  offset="0" style="stop-color:#7ED3F7"/>
		<stop  offset="1" style="stop-color:#003D7E"/>
	</linearGradient>
	<path fill="url(#SVGID_2_)" d="M235,107.084c0-3.729,3.022-7.584,6.75-7.584h83.584v73.333h-23.5v-53.167h-10.167v53.167H268
		v-53.167h-10.5v53.167h-23.167L235,107.084z"/>
	<path d="M267,173.833v-53.17h-8.501v53.17h-25.177l0.678-66.75h-0.002c0.031-4.224,3.294-8.513,7.752-8.585l0,0h84.583v75.333
		h-25.502v-53.166h-8.166v53.168H267L267,173.833z M302.834,118.665l-0.002,53.167h21.501V100.5h-82.582
		c-1.509-0.004-2.937,0.784-4.014,2.043l0,0c-1.075,1.251-1.743,2.947-1.736,4.54l0,0h-1l0.998,0.011l-0.656,64.738H256.5v-53.167
		H269v53.167h21.666v-53.167H302.834L302.834,118.665z"/>
</g>
<g>
	
		<linearGradient id="SVGID_3_" gradientUnits="userSpaceOnUse" x1="-177.166" y1="224.5" x2="-177.166" y2="151.5" gradientTransform="matrix(1 0 0 -1 654 325)">
		<stop  offset="0" style="stop-color:#7ED3F7"/>
		<stop  offset="1" style="stop-color:#003D7E"/>
	</linearGradient>
	<path fill="url(#SVGID_3_)" d="M432,107.084c0-3.729,3.021-7.584,6.75-7.584h83.584v73.333h-23.5v-53.167h-10.167v53.167H465
		v-53.167h-10.5v53.167h-23.166L432,107.084z"/>
	<path d="M463.999,173.833v-53.17H455.5v53.17h-25.177L431,107.072l0,0c0.036-4.219,3.297-8.502,7.75-8.574l0,0h84.584v75.333h-25.5
		v-53.166h-8.167v53.168H463.999L463.999,173.833z M499.833,118.665v53.167h21.501V100.5H438.75
		c-1.507-0.004-2.936,0.784-4.014,2.043l0,0c-1.073,1.251-1.741,2.947-1.736,4.54l0,0h-1l1,0.011l-0.656,64.738H453.5v-53.167H466
		l-0.002,53.167h21.668v-53.167H499.833L499.833,118.665z"/>
</g>
<g>
	
		<linearGradient id="SVGID_4_" gradientUnits="userSpaceOnUse" x1="-626.7495" y1="311.5" x2="-626.7495" y2="238" gradientTransform="matrix(1 0 0 -1 654 325)">
		<stop  offset="0" style="stop-color:#7ED3F7"/>
		<stop  offset="1" style="stop-color:#003D7E"/>
	</linearGradient>
	<rect x="15.167" y="14.5" fill="url(#SVGID_4_)" width="24.167" height="24.834"/>
	<path d="M14.166,40.334V13.5h26.167v25.834v1H14.166L14.166,40.334z M39.333,39.334v-1V39.334L39.333,39.334z M16.166,38.334
		h22.168V15.499H16.166V38.334L16.166,38.334z"/>
</g>
<g>
	
		<linearGradient id="SVGID_5_" gradientUnits="userSpaceOnUse" x1="-270.7495" y1="311.5" x2="-270.7495" y2="238" gradientTransform="matrix(1 0 0 -1 654 325)">
		<stop  offset="0" style="stop-color:#7ED3F7"/>
		<stop  offset="1" style="stop-color:#003D7E"/>
	</linearGradient>
	<rect x="371.167" y="14.5" fill="url(#SVGID_5_)" width="24.167" height="24.834"/>
	<path d="M370.166,40.334V13.5h26.167v25.834v1H370.166L370.166,40.334z M395.333,39.334v-1V39.334L395.333,39.334z M372.167,38.334
		h22.166V15.499h-22.166V38.334L372.167,38.334z"/>
</g>
<g>
	
		<linearGradient id="SVGID_6_" gradientUnits="userSpaceOnUse" x1="-308.75" y1="224.5" x2="-308.75" y2="151.5" gradientTransform="matrix(1 0 0 -1 654 325)">
		<stop  offset="0" style="stop-color:#7ED3F7"/>
		<stop  offset="1" style="stop-color:#003D7E"/>
	</linearGradient>
	<rect x="333.166" y="99.5" fill="url(#SVGID_6_)" width="24.168" height="24.834"/>
	<path d="M332.166,125.334V98.499h26.167v25.835v1H332.166L332.166,125.334z M357.335,124.334v-1.002V124.334L357.335,124.334z
		 M334.165,123.332h22.17V100.5h-22.17V123.332L334.165,123.332z"/>
</g>
<g>
	
		<linearGradient id="SVGID_7_" gradientUnits="userSpaceOnUse" x1="-593.4165" y1="311.5" x2="-593.4165" y2="238" gradientTransform="matrix(1 0 0 -1 654 325)">
		<stop  offset="0" style="stop-color:#7ED3F7"/>
		<stop  offset="1" style="stop-color:#003D7E"/>
	</linearGradient>
	<polygon fill="url(#SVGID_7_)" points="15.5,87.833 74.167,14.5 105.667,14.5 105.667,87.833 54.667,87.833 69.5,68.5 81.667,68.5 
		81.667,39.333 43,87.833 	"/>
	<path d="M52.636,88.832l16.37-21.334h11.66V42.19L43.482,88.832H15.499v-0.999l0.781,0.623l-0.781-0.623v0.999h-2.08l60.267-75.333
		h32.98v75.333H52.636L52.636,88.832z M42.517,86.833l40.149-50.357V69.5l-12.675-0.003L56.693,86.831h47.973V15.499h-30.02
		L17.579,86.833H42.517L42.517,86.833z"/>
</g>
<g>
	
		<linearGradient id="SVGID_8_" gradientUnits="userSpaceOnUse" x1="-274.917" y1="224.5" x2="-274.917" y2="151.5" gradientTransform="matrix(1 0 0 -1 654 325)">
		<stop  offset="0" style="stop-color:#7ED3F7"/>
		<stop  offset="1" style="stop-color:#003D7E"/>
	</linearGradient>
	<polygon fill="url(#SVGID_8_)" points="334,172.833 392.666,99.5 424.166,99.5 424.166,172.833 373.166,172.833 388,153.5 
		400.166,153.5 400.166,124.334 361.5,172.833 	"/>
	<path d="M371.136,173.832l16.371-21.334h11.657v-25.307l-37.183,46.641H334v-1l0.781,0.624L334,172.832v1h-2.081l60.265-75.333
		h32.981v75.333H371.136L371.136,173.832z M361.018,171.833l40.148-50.356V154.5l-12.674-0.002l-13.3,17.332h47.973v-71.331h-30.019
		l-57.067,71.334H361.018L361.018,171.833z"/>
</g>
<g>
	
		<linearGradient id="SVGID_9_" gradientUnits="userSpaceOnUse" x1="-303.917" y1="311.5" x2="-303.917" y2="238" gradientTransform="matrix(1 0 0 -1 654 325)">
		<stop  offset="0" style="stop-color:#7ED3F7"/>
		<stop  offset="1" style="stop-color:#003D7E"/>
	</linearGradient>
	<polygon fill="url(#SVGID_9_)" points="395.166,87.833 336.5,14.5 305,14.5 305,87.833 356,87.833 341.166,68.5 329,68.5 
		329,39.333 367.666,87.833 	"/>
	<path d="M367.183,88.832l-37.185-46.64v25.306h11.66l16.37,21.334h-54.03V13.499h32.98l58.967,73.708l-0.781,0.626v-1v1
		l0.781-0.626l1.302,1.625H367.183L367.183,88.832z M368.146,86.833h24.938l-57.067-71.334h-30.02v71.332h47.973L340.673,69.5
		h-12.675V36.474L368.146,86.833L368.146,86.833z"/>
</g>
<g>
	<g>
		
			<linearGradient id="SVGID_10_" gradientUnits="userSpaceOnUse" x1="-498.5005" y1="311.8467" x2="-498.5005" y2="236.8366" gradientTransform="matrix(1 0 0 -1 654 325)">
			<stop  offset="0" style="stop-color:#7ED3F7"/>
			<stop  offset="1" style="stop-color:#003D7E"/>
		</linearGradient>
		<path fill="url(#SVGID_10_)" d="M190.083,13.999h-76.416v47.667h23.666V35.5h36.333v33.166l-59.999,0.002v19.665h76.416
			c4.022-0.007,7.247-3.417,7.249-7.414V22.084C197.317,18.107,194.175,14.036,190.083,13.999z"/>
	</g>
	<g>
		<path d="M112.667,89.332V67.668l59.999-0.002V36.499h-34.333v26.167h-25.666V12.999h77.416v0.999l0.01-0.999
			c4.793,0.101,8.201,4.625,8.238,9.085l0,0v58.835c-0.006,4.534-3.64,8.395-8.249,8.413l0,0H112.667L112.667,89.332z
			 M114.667,87.332h75.414c3.439-0.004,6.254-2.954,6.252-6.413l0,0V22.088c0.006-3.498-2.871-7.095-6.258-7.089l0,0h-75.408v45.667
			h21.666V34.499h38.333v35.167h-59.999V87.332L114.667,87.332z"/>
	</g>
</g>
<g>
	
		<linearGradient id="SVGID_11_" gradientUnits="userSpaceOnUse" x1="-403" y1="311.5" x2="-403" y2="238" gradientTransform="matrix(1 0 0 -1 654 325)">
		<stop  offset="0" style="stop-color:#7ED3F7"/>
		<stop  offset="1" style="stop-color:#003D7E"/>
	</linearGradient>
	<polygon fill="url(#SVGID_11_)" points="206,14.5 206,87.833 238.833,87.833 296,14.5 268.667,14.5 229.167,62.334 229.167,14.5 	
		"/>
	<path d="M204.999,88.834V14.5v-1h25.169v46.049L268.195,13.5h29.853l-58.726,75.334H204.999L204.999,88.834z M206.999,86.832
		h31.346L293.951,15.5h-24.813l-40.972,49.614V15.5H207L206.999,86.832L206.999,86.832z M206,15.5v-1V15.5L206,15.5z"/>
</g>
<g>
	
		<linearGradient id="SVGID_12_" gradientUnits="userSpaceOnUse" x1="-369.7495" y1="311.5" x2="-369.7495" y2="238" gradientTransform="matrix(1 0 0 -1 654 325)">
		<stop  offset="0" style="stop-color:#7ED3F7"/>
		<stop  offset="1" style="stop-color:#003D7E"/>
	</linearGradient>
	<rect x="272.167" y="62.667" fill="url(#SVGID_12_)" width="24.167" height="25.166"/>
	<path d="M271.166,88.834V61.665h26.167v26.167v1.002H271.166L271.166,88.834z M296.333,87.832v-1V87.832L296.333,87.832z
		 M273.166,86.832h22.167V63.666h-22.167V86.832L273.166,86.832z"/>
</g>
<g>
	
		<linearGradient id="SVGID_13_" gradientUnits="userSpaceOnUse" x1="-208.3335" y1="311.5" x2="-208.3335" y2="238" gradientTransform="matrix(1 0 0 -1 654 325)">
		<stop  offset="0" style="stop-color:#7ED3F7"/>
		<stop  offset="1" style="stop-color:#003D7E"/>
	</linearGradient>
	<polygon fill="url(#SVGID_13_)" points="403.833,87.833 403.833,14.5 431.667,14.5 463.833,53.667 463.833,14.5 487.5,14.5 
		487.5,87.833 462.167,87.833 427,45.167 427,87.833 	"/>
	<path d="M461.695,88.834L428,47.953v40.881h-24.167v-1.002h1h-1v1.002h-1V13.5h29.305l30.695,37.372V13.5H488.5v75.334H461.695
		L461.695,88.834z M404.833,86.832L426,86.829v-44.45l36.639,44.45h23.859V15.5h-21.665v40.961L431.194,15.5h-26.361V86.832
		L404.833,86.832z"/>
</g>
<g>
	
		<linearGradient id="SVGID_14_" gradientUnits="userSpaceOnUse" x1="-24" y1="311.5" x2="-24" y2="238" gradientTransform="matrix(1 0 0 -1 654 325)">
		<stop  offset="0" style="stop-color:#7ED3F7"/>
		<stop  offset="1" style="stop-color:#003D7E"/>
	</linearGradient>
	<polygon fill="url(#SVGID_14_)" points="588.167,14.5 588.167,87.833 671.833,87.833 671.833,68.167 611.667,68.167 
		611.667,60.667 671.833,60.667 671.833,40.5 611.5,40.5 611.5,34.833 671.833,34.833 671.833,14.5 	"/>
	<path d="M587.167,88.834V14.5v-1h85.667v22.333h-60.335V39.5h60.335v22.167h-60.168v5.499h60.168v21.668H587.167L587.167,88.834z
		 M589.167,86.829h81.666V69.166h-60.166v-9.501h60.166V41.5H610.5v-7.667h60.333V15.5h-81.666V86.829L589.167,86.829z
		 M588.167,15.5v-1V15.5L588.167,15.5z"/>
</g>
<g>
	
		<linearGradient id="SVGID_15_" gradientUnits="userSpaceOnUse" x1="-82" y1="224.5" x2="-82" y2="151.5" gradientTransform="matrix(1 0 0 -1 654 325)">
		<stop  offset="0" style="stop-color:#7ED3F7"/>
		<stop  offset="1" style="stop-color:#003D7E"/>
	</linearGradient>
	<polygon fill="url(#SVGID_15_)" points="530.166,99.5 530.166,172.833 613.834,172.833 613.834,153.167 553.666,153.167 
		553.666,145.667 613.834,145.667 613.834,125.5 553.5,125.5 553.5,119.834 613.834,119.834 613.834,99.5 	"/>
	<path d="M529.165,173.833V99.5v-1.002h85.669v22.336l-60.334-0.002v3.667h60.334v22.167l-60.169-0.003v5.502h60.169v21.668H529.165
		L529.165,173.833z M531.165,171.832h81.668v-17.667h-60.167v-9.499h60.167v-18.167H552.5v-7.667h60.332V100.5h-81.668
		L531.165,171.832L531.165,171.832z M530.165,100.5v-1V100.5L530.165,100.5z"/>
</g>
</svg>
